X:1
T:[ID 8-112]
T:[ID 8-112]
T:Bezeichnung standardisiert: Anglaise Angl.
T:Urheber unbekannt Datum in der hier transkribierten schriftlichen Quelle: 1792
C:Urheber unbekannt
C:Datum in der hier transkribierten schriftlichen Quelle: 1792
L:1/8
M:2/4
K:G
V:1 treble 
V:1
 g2 a2 | bg d2 | efge | e2 d2 | (3cdc BB | (3cdc BB | cBAG | d4 :: Df f2 | Dg g2 | Da a2 | Db b2 | %12
 g3 d | e3 c | BAGF | G4 :: c3 d | e2 d2 | c2 A2 | c'4 | g4 | a=feB | c4 :| %23

